X: 1812
T: Sâkî Çekemem...
C: Küçük Mehmed Ağa
O: Turkey
F: http://compmusic.upf.edu/node/140
N: evcara--yuruksemai--senginsemai--saki_cekemem--kucuk_mehmet_aga
N: makam= evcara
N: form= yuruksemai
N: usul= senginsemai = 6/4
M: 6/4
L: 1/16
K: C _1/4B ^f ^c ^A
Q: 1/4=108
%%MIDI tuningsystem comma53
F4 f4 f4 ^e2^g2 f6z2  | ^g4 =a4 g4 f4 ^e4 a4  | \
w:  Sâ kî  çe ke *  mem   |  vâ  | 
(3^g2f2g2 (3f2^e2f2 (3e2d2e2 d2c2 {=g}f3e d2c2  | 
w:  zı  *  *  *  *  *  *  *  *  *  *  *  za  | 
B4 c4 d4 ^e4 f4 ^g4  | ^g4 {=g}=a4 ^g4 f4 ^e6z2  | \
w:  *  rî  |  fâ   | 
c4 {^e}d4 c4 B4 c2de d2c2  | 
w:  fâ *  *  ne yi  boş   | 
c4 d4 ^e2f2 d2e2 f6z2  | F4 f4 f4 ^e2^g2 f6z2  | \
w:  ko   SAZ  |  Sâ kî  çe ke *  mem   | 
^g4 =a4 g4 f4 ^e4 a4  | 
w:  vâ  | 
(3^g2f2g2 (3f2^e2f2 (3e2d2e2 d2c2 {=g}f3e d2c2  | \
w:  zı  *  *  *  *  *  *  *  *  *  *  *  za  | 
B4 c4 d4 ^e4 f4 ^g4  | 
w:  *  rî  | 
^g4 {=g}=a4 ^g4 f4 ^e6z2  | c4 {^e}d4 c4 B4 c2de d2c2  | \
w:  fâ   |  fâ *  *  ne yi  boş   | 
c8 c3B A2B2 c6z2  | 
w:  ko   SAZ  | 
B4 f4 f4 e2g2 f6e2  | g4 f2e2 e2d2 f4 e2d2 c2B2  | \
w:  Câ nım  ye  le  *  lel   |  lel  *  *  *  *  lel   | 
c2d6 c4 B4 A6d2  | 
w:  le  *  le  le  li   | 
(3c2B2c2 (3B2A2B2 (3A2G2A2 G2F2 F6z2  | \
w:  vay    | 
e8 e2g2 f2e2 d3c B4  | 
w:  ah   | 
c4 {^e}d4 c4 B4 A6z2  | F4 {A}G4 F4 ^E4 F2G2 {A}G2F2  | \
w:  ah  ah  *  *  za rî  |  fâ *  *  ne yi  boş   | 
F8 f3^e d2e2 f6z2  | 
w:  ko   SAZ  | 
B4 f4 f4 e2g2 f6e2  | g4 f2e2 e2d2 f4 e2d2 c2B2  | \
w:  Câ nım  ye  le  *  lel   |  lel  *  *  *  *  lel   | 
c2d6 c4 B4 A6d2  | 
w:  le  *  le  le  li   | 
(3c2B2c2 (3B2A2B2 (3A2G2A2 G2F2 F6z2  | \
w:  vay    | 
e8 e2g2 f2e2 d3c B4  | 
w:  ah   | 
c4 {^e}d4 c4 B4 A6z2  | F4 {A}G4 F4 ^E4 F2G2 {A}G2F2  | \
w:  ah  ah  *  *  za rî  |  fâ *  *  ne yi  boş   | 
F8 F3^E D2E2 F6z2  | 
w:  ko   SAZ  | 
F4 F4 G4 A4 B6z2  | B8 B4 B4 f8  | e4 {g}f2e2 d4 {f}e2d2 c4 {e}d2c2  | \
w:  Çok  da  o  pe ri   |  ru yi le  ün  |   | 
B8 B4 B4 ^g2=a2 g2f2  | 
w:  si ye te  gel  | 
^g3f ^e2f2 e2{g}f2 e2d2 c2B2 =A2^G2  | \
w:  mez    | 
F4 F4 G4 A4 B6z2  | B8 B4 B4 f8  | 
w:  Çok  da  o  pe ri   |  ru yi le  ün  | 
e4 {g}f2e2 d4 {f}e2d2 c4 {e}d2c2  | \
w:   | 
B8 B4 B4 ^g2=a2 g2f2  | ^g3f ^e2f2 e2{g}f2 g2f2 f6z2  | 
w:  si ye te  gel  |  mez    | 
B4 f4 f4 e2g2 f6e2  | g4 f2e2 e2d2 f4 e2d2 c2B2  | \
w:  Câ nım  ye  le  *  lel   |  lel  *  *  *  *  lel   | 
c2d6 c4 B4 A6d2  | 
w:  le  *  le  le  li   | 
(3c2B2c2 (3B2A2B2 (3A2G2A2 G2F2 F6z2  | \
w:  vay    | 
e8 e2g2 f2e2 d3c B4  | 
w:  ah   | 
c4 {^e}d4 c4 B4 A6z2  | F4 {A}G4 F4 ^E4 F2G2 {A}G2F2  | \
w:  ah  ah  *  *  za rî  |  fâ *  *  ne yi  boş   | 
F8 f3^e d2e2 f6z2  | 
w:  ko   SAZ  | 
B4 f4 f4 e2g2 f6e2  | g4 f2e2 e2d2 f4 e2d2 c2B2  | \
w:  Câ nım  ye  le  *  lel   |  lel  *  *  *  *  lel   | 
c2d6 c4 B4 A6d2  | 
w:  le  *  le  le  li   | 
(3c2B2c2 (3B2A2B2 (3A2G2A2 G2F2 F6z2  | \
w:  vay    | 
e8 e2g2 f2e2 d3c B4  | 
w:  ah   | 
c4 {^e}d4 c4 B4 A6z2  | F4 {A}G4 F4 ^E4 F2G2 {A}G2F2  | \
w:  ah  ah  *  *  za rî  |  fâ *  *  ne yi  boş   | 
F8 F3^E D2E2 F6z2  | 
w:  ko   SAZ  | 
|


